icons/gripper.svg

<svg xmlns="http://www.w3.org/2000/svg" fill="#90a4ae" viewBox="0 0 24 24"><path d="M9 3h2v2H9zm4 0h2v2h-2zM9 7h2v2H9zm4 0h2v2h-2zm-4 4h2v2H9zm4 0h2v2h-2zm-4 4h2v2H9zm4 0h2v2h-2zm-4 4h2v2H9zm4 0h2v2h-2z"/></svg>

<!--
  - The MIT License (MIT)
  -
  - Copyright (c) 2015-2024 Elior "Mallowigi" Boukhobza
  -
  - Permission is hereby granted, free of charge, to any person obtaining a copy
  - of this software and associated documentation files (the "Software"), to deal
  - in the Software without restriction, including without limitation the rights
  - to use, copy, modify, merge, publish, distribute, sublicense, and/or sell
  - copies of the Software, and to permit persons to whom the Software is
  - furnished to do so, subject to the following conditions:
  -
  - The above copyright notice and this permission notice shall be included in all
  - copies or substantial portions of the Software.
  -
  - THE SOFTWARE IS PROVIDED "AS IS", WITHOUT WARRANTY OF ANY KIND, EXPRESS OR
  - IMPLIED, INCLUDING BUT NOT LIMITED TO THE WARRANTIES OF MERCHANTABILITY,
  - FITNESS FOR A PARTICULAR PURPOSE AND NONINFRINGEMENT. IN NO EVENT SHALL THE
  - AUTHORS OR COPYRIGHT HOLDERS BE LIABLE FOR ANY CLAIM, DAMAGES OR OTHER
  - LIABILITY, WHETHER IN AN ACTION OF CONTRACT, TORT OR OTHERWISE, ARISING FROM,
  - OUT OF OR IN CONNECTION WITH THE SOFTWARE OR THE USE OR OTHER DEALINGS IN THE
  - SOFTWARE.
  -
  -->


<svg xmlns="http://www.w3.org/2000/svg" version="1.1" width="16px" height="16px" fill="#90A4AE"
     viewBox="0 0 24 24">
  <path
      d="M9,3H11V5H9V3M13,3H15V5H13V3M9,7H11V9H9V7M13,7H15V9H13V7M9,11H11V13H9V11M13,11H15V13H13V11M9,15H11V17H9V15M13,15H15V17H13V15M9,19H11V21H9V19M13,19H15V21H13V19Z"/>
</svg>
